icons/breezeDark/actions/16/zoom-in.svg

<svg height="16" viewBox="0 0 16 16" width="16" xmlns="http://www.w3.org/2000/svg"><path d="m2 2v2h1v-1h1v-1zm4 0v1h2v-1zm3 11v1h1v-1zm1-11v1h2.292969l-3.292969 3.292969.707031.707031 3.292969-3.2929688v2.2929688h1v-4h-1zm-8 4v1h1v-1zm11 2v2h1v-2zm-11 1v5h5v-5zm11 3v1h-1v1h2v-2z" fill="#c0c0c0"/></svg>

<?xml version="1.0" encoding="UTF-8" standalone="no"?>
<svg
   xmlns:dc="http://purl.org/dc/elements/1.1/"
   xmlns:cc="http://creativecommons.org/ns#"
   xmlns:rdf="http://www.w3.org/1999/02/22-rdf-syntax-ns#"
   xmlns:svg="http://www.w3.org/2000/svg"
   xmlns="http://www.w3.org/2000/svg"
   xmlns:sodipodi="http://sodipodi.sourceforge.net/DTD/sodipodi-0.dtd"
   xmlns:inkscape="http://www.inkscape.org/namespaces/inkscape"
   viewBox="0 0 16 16"
   version="1.1"
   id="svg6"
   sodipodi:docname="zoom-in.svg"
   width="16"
   height="16"
   inkscape:version="1.0beta1 (fe3e306, 2019-09-17)">
  <metadata
     id="metadata10">
    <rdf:RDF>
      <cc:Work
         rdf:about="">
        <dc:format>image/svg+xml</dc:format>
        <dc:type
           rdf:resource="http://purl.org/dc/dcmitype/StillImage" />
        <dc:title />
      </cc:Work>
    </rdf:RDF>
  </metadata>
  <sodipodi:namedview
     pagecolor="#ffffff"
     bordercolor="#666666"
     inkscape:document-rotation="0"
     borderopacity="1"
     objecttolerance="10"
     gridtolerance="10"
     guidetolerance="10"
     inkscape:pageopacity="0"
     inkscape:pageshadow="2"
     inkscape:window-width="1300"
     inkscape:window-height="1042"
     id="namedview8"
     showgrid="true"
     inkscape:zoom="30.341309"
     inkscape:cx="10.795912"
     inkscape:cy="6.4220778"
     inkscape:window-x="604"
     inkscape:window-y="0"
     inkscape:window-maximized="0"
     inkscape:current-layer="svg6">
    <inkscape:grid
       type="xygrid"
       id="grid835" />
  </sodipodi:namedview>
  <defs
     id="defs3051">
    <style
       type="text/css"
       id="current-color-scheme">
      .ColorScheme-Text {
        color:#c0c0c0;
      }
      </style>
  </defs>
  <path
     style="fill:currentColor;fill-opacity:1;stroke:none"
     d="M 2,2 V 4 H 3 V 3 H 4 V 2 Z M 6,2 V 3 H 8 V 2 Z m 3,11 v 1 h 1 V 13 Z M 10,2 v 1 h 2.292969 L 9,6.292969 9.707031,7 13,3.7070312 V 6 h 1 V 2 H 13 Z M 2,6 V 7 H 3 V 6 Z m 11,2 v 2 h 1 V 8 Z M 2,9 v 5 H 7 V 9 Z m 11,3 v 1 h -1 v 1 h 2 v -2 z"
     class="ColorScheme-Text"
     id="path4"
     inkscape:connector-curvature="0"
     sodipodi:nodetypes="cccccccccccccccccccccccccccccccccccccccccccccccccc" />
</svg>
